%
O0000(MANSTAND DOCKING STATION - EPS)
(DATE=DD-MM-YY - 10-10-24 TIME=HH:MM - 01:04)
(MCAM FILE - E:\MANSTAND DOCKING STATION\MANSTAND DOCKING STATION - EPS.MCAM)
(NC FILE - E:\MASTERCAM\PROJECT\MANSTAND DOCKING STATION - EPS.NC)
(MATERIAL - WOOD MM)
( T1 | 3.175 雕刻钻头 | H1 )
N100 G17 G21 G90 G40 G80 G64 G49 G0 M05
N110 G8 P1
N120 G90 M05 Z0
N130 G52 X0. Y0. Z0.
N140 T1 M6
N150 G0 G90 G54 X-138.307 Y-147.879 C0.
N160 S1890 M3
N170 G43 H1 Z5.
N180 G1 Z0. F600.
N190 X-137.503 Y-147.08 Z-3. F226.8
N200 X-50.516 Y-147.535
N210 X-49.929 Y-147.631
N220 X-49.401 Y-147.903
N230 X-48.982 Y-148.326
N240 X-48.714 Y-148.856
N250 X-48.622 Y-149.444
N260 X-48.656 Y-160.999
N270 X-49.462 Y-161.803 Z0.
N280 X-48.656 Y-160.999 Z-3.
N290 X11.618 Y-161.001
N300 X12.205 Y-161.094
N310 X12.736 Y-161.364
N320 X13.157 Y-161.784
N330 X13.427 Y-162.314
N340 X13.521 Y-162.902
N350 X13.533 Y-169.467
N360 X13.477 Y-169.927
N370 X13.311 Y-170.36
N380 X12.342 Y-172.016
N390 X11.226 Y-173.577
N400 X9.974 Y-175.03
N410 X8.594 Y-176.363
N420 X7.1 Y-177.566
N430 X5.502 Y-178.627
N440 X3.814 Y-179.54
N450 X2.051 Y-180.295
N460 X.226 Y-180.887
N470 X-1.645 Y-181.31
N480 X-3.547 Y-181.562
N490 X-5.464 Y-181.64
N500 X-7.449 Y-181.556
N510 X-9.418 Y-181.284
N520 X-11.352 Y-180.829
N530 X-13.234 Y-180.194
N540 X-15.049 Y-179.384
N550 X-16.779 Y-178.408
N560 X-18.41 Y-177.273
N570 X-19.927 Y-175.989
N580 X-21.316 Y-174.569
N590 X-22.566 Y-173.024
N600 X-23.665 Y-171.368
N610 X-23.203 Y-170.565 Z0.
N620 X-23.665 Y-171.368 Z-3.
N630 X-48.657 Y-171.32
N640 X-49.462 Y-170.515 Z0.
N650 X-48.657 Y-171.32 Z-3.
N660 X-48.606 Y-198.544
N670 X-48.484 Y-198.931
N680 X-48.246 Y-199.26
N690 X-47.917 Y-199.496
N700 X-47.53 Y-199.616
N710 X35.421
N720 X35.806 Y-199.495
N730 X36.133 Y-199.259
N740 X36.369 Y-198.932
N750 X36.489 Y-198.547
N760 X36.497 Y-149.438
N770 X36.59 Y-148.852
N780 X36.859 Y-148.323
N790 X37.277 Y-147.902
N800 X37.805 Y-147.631
N810 X38.39 Y-147.535
N820 X73.112 Y-147.334
N830 X73.916 Y-148.133 Z0.
N840 X73.112 Y-147.334 Z-3.
N850 Y-60.307
N860 X73.205 Y-59.719
N870 X73.475 Y-59.188
N880 X73.896 Y-58.767
N890 X74.427 Y-58.496
N900 X75.015 Y-58.403
N910 X107.045
N920 X107.634 Y-58.497
N930 X108.164 Y-58.767
N940 X108.585 Y-59.188
N950 X108.856 Y-59.719
N960 X108.949 Y-60.307
N970 X108.935 Y-147.223
N980 X108.131 Y-148.034 Z0.
N990 X108.935 Y-147.223 Z-3.
N1000 X125.389 Y-147.086
N1010 X126.193 Y-147.883 Z0.
N1020 X125.389 Y-147.086 Z-3.
N1030 Y-19.711
N1040 X125.296 Y-19.123
N1050 X125.025 Y-18.591
N1060 X124.603 Y-18.17
N1070 X124.072 Y-17.899
N1080 X123.483 Y-17.806
N1090 X-135.598
N1100 X-136.187 Y-17.899
N1110 X-136.718 Y-18.17
N1120 X-137.139 Y-18.592
N1130 X-137.41 Y-19.123
N1140 X-137.503 Y-19.712
N1150 Y-147.08
N1160 X-138.307 Y-147.879 Z0.
N1170 G0 Z25.
N1180 X-115.646 Y-37.082
N1190 Z5.
N1200 G1 Z-3. F600.
N1210 X-115.552 Y-36.494 F226.8
N1220 X-115.282 Y-35.963
N1230 X-114.861 Y-35.542
N1240 X-114.33 Y-35.272
N1250 X-113.742 Y-35.178
N1260 X37.528
N1270 X38.116 Y-35.272
N1280 X38.647 Y-35.542
N1290 X39.068 Y-35.963
N1300 X39.338 Y-36.494
N1310 X39.432 Y-37.082
N1320 Y-122.807
N1330 X39.338 Y-123.396
N1340 X39.068 Y-123.926
N1350 X38.647 Y-124.348
N1360 X38.116 Y-124.618
N1370 X37.528 Y-124.711
N1380 X-113.742
N1390 X-114.33 Y-124.618
N1400 X-114.861 Y-124.348
N1410 X-115.282 Y-123.926
N1420 X-115.552 Y-123.396
N1430 X-115.646 Y-122.807
N1440 Y-37.082
N1450 G0 Z22.
N1460 G54 X-46.707 Y36.95
N1470 Z5.
N1480 G1 Z-3. F600.
N1490 X-46.614 Y37.538 F226.8
N1500 X-46.343 Y38.069
N1510 X-45.922 Y38.49
N1520 X-45.391 Y38.76
N1530 X-44.803 Y38.853
N1540 X45.621
N1550 X46.209 Y38.76
N1560 X46.74 Y38.49
N1570 X47.161 Y38.069
N1580 X47.432 Y37.538
N1590 X47.525 Y36.95
N1600 Y22.353
N1610 X47.432 Y21.764
N1620 X47.161 Y21.234
N1630 X46.74 Y20.812
N1640 X46.209 Y20.542
N1650 X45.621 Y20.449
N1660 X-44.803
N1670 X-45.391 Y20.542
N1680 X-45.922 Y20.812
N1690 X-46.343 Y21.234
N1700 X-46.614 Y21.764
N1710 X-46.707 Y22.353
N1720 Y36.95
N1730 G0 Z25.
N1740 X18.922 Y-6.844
N1750 Z8.
N1760 G1 Z0. F600.
N1770 X19.255 Y-6.04 Z-3. F226.8
N1780 X78.891 Y-5.989
N1790 X79.224 Y-5.882
N1800 X79.501 Y-5.669
N1810 X79.689 Y-5.375
N1820 X79.765 Y-5.034
N1830 X79.736 Y94.235
N1840 X79.83 Y94.827
N1850 X80.103 Y95.36
N1860 X80.528 Y95.781
N1870 X81.064 Y96.05
N1880 X83.973 Y96.884
N1890 X86.924 Y97.555
N1900 X89.908 Y98.059
N1910 X92.916 Y98.397
N1920 X95.938 Y98.566
N1930 X98.964
N1940 X101.986 Y98.397
N1950 X104.993 Y98.059
N1960 X107.977 Y97.555
N1970 X110.929 Y96.884
N1980 X113.838 Y96.05
N1990 X114.373 Y95.782
N2000 X114.798 Y95.361
N2010 X115.072 Y94.828
N2020 X115.166 Y94.237
N2030 X115.256 Y-5.126
N2040 X115.368 Y-5.459
N2050 X115.587 Y-5.734
N2060 X115.886 Y-5.918
N2070 X116.23 Y-5.99
N2080 X137.136 Y-6.005
N2090 X137.522 Y-5.884
N2100 X137.85 Y-5.646
N2110 X138.086 Y-5.317
N2120 X138.207 Y-4.93
N2130 X138.239 Y128.607 Z-2.996
N2140 X138.432 Y128.646 Z-2.28
N2150 X138.239 Y128.607 Z-3.
N2160 X137.968 Y128.967
N2170 X137.577 Y129.187
N2180 X137.129 Y129.231
N2190 X136.898 Y129.217
N2200 X83.1 Y129.145
N2210 X82.512 Y129.238
N2220 X81.981 Y129.508
N2230 X81.56 Y129.929
N2240 X81.289 Y130.46
N2250 X81.196 Y131.049
N2260 Y156.449
N2270 X81.29 Y157.037
N2280 X81.561 Y157.568
N2290 X81.982 Y157.99
N2300 X82.514 Y158.26
N2310 X83.103 Y158.352
N2320 X137.328 Y158.282
N2330 X137.664 Y158.389
N2340 X137.945 Y158.604
N2350 X138.135 Y158.902
N2360 X138.213 Y159.246
N2370 X138.205 Y198.659
N2380 X138.084 Y199.047
N2390 X137.847 Y199.377
N2400 X137.518 Y199.615
N2410 X137.13 Y199.737
N2420 X-61.027 Y199.736
N2430 X-61.366 Y199.626
N2440 X-61.647 Y199.407
N2450 X-61.836 Y199.105
N2460 X-61.912 Y198.757
N2470 X-61.953 Y188.932
N2480 X-62.048 Y188.346
N2490 X-62.32 Y187.818
N2500 X-62.741 Y187.398
N2510 X-63.27 Y187.129
N2520 X-63.857 Y187.037
N2530 X-127.357
N2540 X-127.946 Y187.13
N2550 X-128.477 Y187.401
N2560 X-128.898 Y187.823
N2570 X-129.168 Y188.355
N2580 X-129.261 Y188.944
N2590 X-129.245 Y198.822
N2600 X-129.379 Y199.198
N2610 X-129.642 Y199.498
N2620 X-129.996 Y199.682
N2630 X-130.393 Y199.724
N2640 X-136.332 Y199.737
N2650 X-136.71 Y199.621
N2660 X-137.032 Y199.393
N2670 X-137.266 Y199.074
N2680 X-137.387 Y198.698
N2690 X-137.382 Y-4.913
N2700 X-137.26 Y-5.304
N2710 X-137.021 Y-5.637
N2720 X-136.689 Y-5.878
N2730 X-136.298 Y-6.001
N2740 X-19.168 Y-5.747
N2750 X-14.363 Y-3.049
N2760 X-12.229 Y-1.902
N2770 X-10.057 Y-.827
N2780 X-8.127 Y.015
N2790 X-6.153 Y.748
N2800 X-4.391 Y1.272
N2810 X-2.594 Y1.659
N2820 X-1.017 Y1.858
N2830 X.572 Y1.899
N2840 X2.158 Y1.782
N2850 X3.724 Y1.509
N2860 X5.566 Y1.051
N2870 X7.376 Y.478
N2880 X9.929 Y-.526
N2890 X12.417 Y-1.681
N2900 X14.831 Y-2.984
N2910 X17.162 Y-4.43
N2920 X18.235 Y-5.2
N2930 X19.255 Y-6.04
N2940 X18.922 Y-6.844 Z0.
N2950 G0 Z25.
N2960 G90 G49 Z0. M05
N2970 G52 X0. Y0. Z0.
N2980 G8 P0
N2990 G17
N3000 M30
%
